X:1
T: This Guy's In Love With You
C: Herb Alpert & Hal David
M:4/4
L:1/8
K:Eb
|:z2 GG-G2 G{/F}G-|G3 z z2 z G|c2 C2 E F2 E/2F/2-|F4 z4|
 z2 G{/F}G-G2 G{/F}G-|G3 z z2 z G|G2 G2 =A2 =B2|c e2 e-e4|
_d e2 e-e4|_d2 f2 e2 d2|e2 f2 g f3|FG- GG- G2 z F|
B4 z2 z G|cE-E2 z2 z F|B6 G2|c2 E2 FE F2:|
z2 G{/F}G-G2 G{/F}G-|G4 z4|z2 G{/F}G-G2 G{/F}G-|G4 z4|
z2 GG-G2 =A2|B6 =A2|G4 c =A3|F8-|F2 F (3A2G2F2|G/2F/2E-E6|
